X:1
T: Highland Donald
C: R-61
M: C|
Z:
R: reel
K: Bm
"Bm"F2B2 B2AB| c2B2 B2cB| "A"A3F E2F2| A2B2 A2F2|
"Bm"F2B2 B2AB| c2B2 B2cB| "A"A3F E2F2|1 "Bm"B4 z2E2 :|2 "Bm"B4 "A7"A4 |]
|:\
"D"d4 d3e| f2d2 B2A2| "A7"A2e2 e3f| gfed B2A2|
"D"d3e f2d2| Bd- d4 A2| "Bm"B2A2 F2A2|1 B4 "A7"B2c2 :|2 "Bm"B2z2 B4 |]
%
